!!!!SEGMENT: 070-1-Sam-003.krn
!!!COM: Chopin, Fryderyk
!!!AGN: Waltz
!!!NIFC-rismID:  1001033437
!!!NIFC-shelfmark: PL-Wbfc 2336/n
!!!OMD: Moderato
!!!OMD: [quarter] = 108.
!!!system-decoration: {(s1,s2)}
**kern	**kern	**dynam
*part1	*part1	*part1
*	*I"5ᵉ | VALSE	*
*staff2	*staff1	*
*clefF4	*clefG2	*
*k[b-e-a-d-g-]	*k[b-e-a-d-g-]	*
*M3/4	*M3/4	*
*MM108	*MM108	*
*>[A,B,B1,B,B2,C,C1,C,C2,D]	*>[A,B,B1,B,B2,C,C1,C,C2,D]	*>[A,B,B1,B,B2,C,C1,C,C2,D]
*>A	*>A	*>A
!	!LO:TX:a:t=P:w źródle '[quarter]=108.,' znajduje się po lewej stronie akolady, na wysokości dolnej pięciolinii:problem	!
!	!LO:TX:b:Bi:t=dolce\ e\ legato.:dur=2q:ext=s:problem:text with extention lines	!
!	!LO:TX:t=P:nie wyświetla się "Moderato" (OMD):problem	!
4r	8b-L\	.
.	8a-J	.
=1	=1	=1
*	*^	*
!	!	!LO:N:vis=2	!
4D-	2ff	8ffL	.
.	.	(>8f	.
4d- 4A- 4F	.	8g-	.
.	.	8gnJ	.
4d- 4A- 4F	8ffL	[>4a-)	.
.	8gg-J	.	.
=2	=2	=2	=2
4AA-	4.ff	8a-L]	.
.	.	8gn	.
4c 4G- 4E-	.	8a-	.
.	8ff	8b--	.
4c 4G- 4E-	4ee-	8a-	.
.	.	[>8g-XJ	.
=3	=3	=3	=3
*^	*	*	*
4ryy	2BB-/	4.dd-	8g-L]	.
.	.	.	8fJ	.
4d- 4B-\	.	.	4a-	.
.	.	8ccL	.	.
4d- 4B- 4E-\	4ryy	8b-	4gn	.
.	.	8ee-J	.	.
*v	*v	*	*	*
=4	=4	=4	=4
4AA-	(<8dd-T>L	2g-X	.
.	8cc	.	.
4e- 4A-	8b-	.	.
.	8ccJ	.	.
4e- 4A-	4a-)	4g-	.
!!LO:LB:g=original
=5	=5	=5	=5
4D-	2ff	8rg	.
.	.	8fL	.
4d- 4A- 4F	.	8g-	.
.	.	8gnJ	.
4d- 4A- 4F	8ffL	[<4a-	.
.	8gg-J	.	.
=6	=6	=6	=6
4AA-	4.ff	8a-L]	.
.	.	8a-J	.
4c 4G- 4E-	.	4b--	.
.	8ff	.	.
4BB--	[>4ee-	8a-L	.
.	.	8g-J	.
=7	=7	=7	=7
!LO:N:acc=n-	!	!	!
4BBn-	8ee-L]	4f	.
.	8dd-J	.	.
4e- 4B- 4G-	8b-L	4.b-	.
.	8ccc	.	.
4g- 4e- 4A-	8bb-	.	.
.	8ccJ	8cc	.
=8	=8	=8	=8
4f 4d-	4dd-	8dd-L	.
.	.	(>8f	.
4r	4rbb	8g-	.
.	.	8gn	.
4r	4rbb	8b-	.
.	.	8a-J)	.
=9	=9	=9	=9
!	!	!LO:N:vis=2	!
4D-	2ff	8ffL	.
.	.	(>8f	.
4d- 4A- 4F	.	8g-	.
.	.	8gnJ	.
4d- 4A- 4F	8ffL	[<4a-)	.
.	8gg-J	.	.
=10	=10	=10	=10
4AA-	4.ff	8a-L]	.
.	.	8gn	.
4c 4G- 4E-	.	8a-	.
.	8ff	8b--	.
4c 4G- 4E-	4ee-	8a-	.
.	.	[<8g-XJ	.
!!LO:LB:g=original
=11	=11	=11	=11
*^	*	*	*
4ryy	2BB-/	4.dd-	8g-L]	.
.	.	.	8fJ	.
4d-/ 4B-/	.	.	4a-	.
.	.	8ccL	.	.
4d-/ 4B-/ 4E-/	4ryy	8b-	4gn	.
.	.	8ee-J	.	.
*v	*v	*	*	*
=12	=12	=12	=12
4AA-	(<8dd-T>L	2g-X	.
.	8cc	.	.
4e- 4A-	8b-	.	.
.	8ccJ	.	.
4e- 4A-	4a-)	4g-	.
=13	=13	=13	=13
4D-	2ff	8ra	.
.	.	(>8fL	.
4d- 4A- 4F	.	8g-	.
.	.	8gnJ	.
4d- 4A- 4F	8ffL	[<4a-)	.
.	8gg-J	.	.
=14	=14	=14	=14
4AA-	4.ff	8a-L]	.
.	.	8a-J	.
4c 4G- 4E-	.	4b--	.
.	8ff	.	.
4BB--	[>4ee-	8a-L	.
.	.	8g-J	.
=15	=15	=15	=15
!LO:N:acc=n-	!	!	!
4BBn-	8ee-L]	4f	.
.	8dd-J	.	.
4e- 4B- 4G-	8b-L	4.b-	.
.	8ccc	.	.
4g- 4e- 4A-	8bb-	.	.
.	8ccJ	8cc	.
*	*v	*v	*
=16	=16	=16
4f 4d-	8dd-L\	.
.	8f	.
4r	8g-	.
.	8gn	.
4r	8a-	.
.	8ccJ	.
!!LO:LB:g=original
=17	=17	=17
*	*^	*
*ped	*	*	*
!	!	!	!LO:DY:rj
4E- 4EE-	4.ff^>	4.dd-	mf
4e- 4E-	.	.	.
.	8ee-L	8gnL	.
4e- 4E-	8ff 8dd-	8dd-	.
*Xped	*	*	*
.	8ee-J	8gJ	.
=18	=18	=18	=18
*ped	*	*	*
4A- 4AA-	(>8ffL	8ccL	.
.	8ee-	8a-	.
4e- 4A-	8ff	8cc	.
.	8ee-	8a-	.
4r	8ff	8cc	.
*Xped	*	*	*
.	8ee-J)	8a-J	.
=19	=19	=19	=19
*ped	*	*	*
4D- 4DD-	4.ee-^>	4.cc-X	.
4d- 4D-	.	.	.
.	8dd-L	8fL	.
4d- 4D-	8ee-	8cc-	.
*Xped	*	*	*
.	8dd-J	8fJ	.
=20	=20	=20	=20
*ped	*	*	*
4GG-	8ee-^>L	8b-L	.
.	8dd-	8g-	.
4d- 4B- 4G-	8ee-^>	8b-	.
.	8dd-	8g-	.
4r	8ee-^>	8b-	.
*Xped	*	*	*
.	8dd-J	8g-J	.
=21	=21	=21	=21
*ped	*	*	*
4GG-	8dd-L	8b--L	<
.	8ee-	8g-	.
4d- 4B-- 4G-	8dd-T>	8b--	.
.	8cc	8g-	.
4d- 4B-- 4G-	8dd-	8b--	.
*Xped	*	*	*
.	8ee-J	8g-J	[
=22	=22	=22	=22
*ped	*	*	*
4D-	4ff	8a-L	.
.	.	8f	.
4d- 4A- 4F	(>8ee-L	8a-	.
*Xped	*	*	*
.	8dd-	8f	.
4GGn	8cc	8f-X	.
.	8b-J)	8d-J	.
!!LO:LB:g=original
=23	=23	=23	=23
!LO:TX:t=P:"dim." przed nutą:problem	!	!	!
4AA-	8b-L	8fnL	>
.	8a-	8c	.
4A-	8b-	8g-	.
.	8a-	8c	.
4A- 4AA-	8b-	8g-	.
.	8a-J	8cJ	.
*	*v	*v	*
=24	=24	=24
*ped	*	*
4A- 4D-	4.dd- 4.f\	.
4DD-	.	.
.	(>8ccL	<
*Xped	*	*
4r	8dd-	.
.	8ddnJ)	[
=25	=25	=25
*	*^	*
*ped	*	*	*
4E- 4EE-	4.ff^>	4.dd-X	mf
4e- 4E-	.	.	.
.	8ee-L	8gnL	.
4e- 4E-	8ff	8dd-	.
*Xped	*	*	*
.	8ee-J	8gJ	.
=26	=26	=26	=26
*ped	*	*	*
4A- 4AA-	(>8ffL	8ccL	.
.	8ee-	8a-	.
4e- 4A-	8ff	8cc	.
.	8ee-	8a-	.
4r	8ff	8cc	.
*Xped	*	*	*
.	.	.	.
.	8ee-J)	8a-J	.
=27	=27	=27	=27
*ped	*	*	*
4D- 4DD-	4.ee-^>	4.cc-X	.
4d- 4D-	.	.	.
.	8dd-L	8fL	.
4d- 4D-	8ee-	8cc-	.
*Xped	*	*	*
.	8dd-J	8fJ	.
=28	=28	=28	=28
*ped	*	*	*
4GG-	8ee-^>L	8b-L	.
.	8dd-	8g-	.
4d- 4B- 4G-	8ee-^>	8b-	.
.	8dd-	8g-	.
4r	8ee-^>	8b-	.
*Xped	*	*	*
.	8dd-J	8g-J	.
!!LO:LB:g=original
=29	=29	=29	=29
*ped	*	*	*
4GG-	8dd-L	8b--L	.
.	8ee-	8g-	.
4d- 4B-- 4G-	8dd-T>	8b--	.
.	8cc	8g-	.
4d- 4B-- 4G-	8dd-	8b--	.
*Xped	*	*	*
.	8ee-J	8g-J	.
=30	=30	=30	=30
*ped	*	*	*
4D-	4ff	8a-L	.
.	.	8f	.
4d- 4A- 4F	(>8ee-L	8a-	.
.	8dd-	8f	.
*Xped	*	*	*
.	.	.	.
4GGn	8cc	8f-X	.
.	8b-J)	8d-J	.
=31	=31	=31	=31
4AA-	8b-L	8fnL	.
.	8a-	8c	.
4A-	8b-	8g-	.
.	8a-	8c	.
4A- 4AA-	8b-	8g-	.
.	8a-J	8cJ	.
*	*v	*v	*
=32	=32	=32
*ped	*	*
4A- 4D-	4dd- 4f	.
4DD-	4r	.
*Xped	*	*
4r	4d-	.
=33!|:	=33!|:	=33!|:
*>B	*>B	*>B
*k[b-e-a-d-g-c-]	*k[b-e-a-d-g-c-]	*
*	*^	*
!	!LO:TX:a:t=P:w źródle zmiana znaków znaków przykluczowych na początku tego taktu:problem	!	!
(>8GG-L	2.b-	4rd	<
8D-	.	.	.
8E-	.	4d- 4B-	.
8F	.	.	.
8G-	.	4d- 4B-	.
8A-J)	.	.	[
=34	=34	=34	=34
2B-	2g-^>	4rc	.
.	.	4d-	<
.	.	.	.
4A-	4f	4d-	.
!!LO:PB:g=original
=35	=35	=35	=35
2c-	2a-^>	4rc	.
.	.	4d-	.
4B-	4gn	4d-	.
=36	=36	=36	=36
2e-	2.b-	4rc	.
.	.	4gn 4e-	.
4d-	.	4g 4e-	.
=37	=37	=37	=37
4c-	(>2ee-	4a-	.
(>8d-L	.	4a- 4e-	.
8c-J)	.	.	.
4B-	4dd-	4gn 4e-	.
=38	=38	=38	=38
4A-	2cc-	4a- 4e-	.
8B-L	.	4a- 4e-	.
8A-J	.	.	.
4G-	4ccn	4an 4e-	.
=39	=39	=39	=39
4F	2dd-	4a-X 4d-	.
8G-L	.	4a- 4d-	.
8FJ	.	.	.
4E-	4ccn 4a-)	4g-	.
=40	=40	=40	=40
2.D-T>	(>4ee- 4cc-X	4g-	>
.	4dd- 4b-	8fL	.
.	.	8e-J	]
.	4cc- 4a-)	4f	.
16qqCnL/	.	.	.
16qqD-J	.	.	.
=41	=41	=41	=41
(>8GG-L	2.b- 2.g-	4rc	<
8D-	.	.	.
8E-	.	4d- 4B-	.
8F	.	.	.
8G-	.	4d- 4B-	.
8A-J)	.	.	[[
!!LO:LB:g=original
=42	=42	=42	=42
2B-	(>2g-	4rc	.
.	.	4d-	.
4A-	4f)	4d-	.
=43	=43	=43	=43
2c-	(>2a-	4rc	.
.	.	4d-	<
4B-	4gn)	4d-	.
=44	=44	=44	=44
2e-	2.b-	4re	.
.	.	4gn 4e-	.
4d-	.	4g 4e-	.
=45	=45	=45	=45
(>4c-	(>2ee-	4a- 4e-	.
8d-L	.	4a- 4e-	.
8c-J	.	.	.
4B-)	4dd-	4gn 4e-	.
=46	=46	=46	=46
(>4A-	2cc-	4a- 4e-	.
8B-L	.	4a- 4e-	.
8A-J	.	.	.
4G-)	4ccn)	4an 4e-	.
=47	=47	=47	=47
(<8FL	4dd-	4a-X 4d-	<
8E-	.	.	.
8D-	4r	4ryy	.
8C-	.	.	.
8BB-	4dd-	4cc- 4f	.
8AA-J)	.	.	.
.	.	.	[
*	*v	*v	*
=48	=48	=48
!!LO:TX:a:B:t=1ᵒ
*>B1	*>B1	*>B1
4GG-	4gg- 4b- 4g-	.
4r	4r	.
4r	4d-	.
!!LO:LB:g=original
=49:|!	=49:|!	=49:|!
!!LO:TX:a:B:t=2ᵒ
*>B2	*>B2	*>B2
4GG-	4gg- 4b- 4g-	.
4r	4r	.
4r	4b- 4g- 4d-	.
=50!|:	=50!|:	=50!|:
*>C	*>C	*>C
*k[b-e-a-d-g-]	*k[b-e-a-d-g-]	*
*	*^	*
*ped	*	*	*
!	!LO:TX:a:t=P:w źródle zmiana znaków znaków przykluczowych na początku tego taktu; w źródle kasownik C przy nowych znakach przykluczowych:problem	!	!
!LO:TX:b:t=P:znak pedalizacji przed nutą:problem	!	!	!
4AA- 4AAA-	4.b-	4.g-	p
4A- 4AA-	.	.	.
.	8a-L	8cnL	.
4A- 4AA-	8b-	8g-	.
*Xped	*	*	*
.	8a-J	8cJ	.
=51	=51	=51	=51
*ped	*	*	*
4D- 4DD-	(>4f	4d-	.
!	!	!LO:N:vis=2	!
4A- 4D-	8a-L	8f	.
.	8dd-J	4.a-	.
*Xped	*	*	*
4r	4ff 4dd-)	.	.
=52	=52	=52	=52
*	*	*^	*
4A- 4AA-	(>4.ff	2cc/	4.a- 4.g-^<\	.
4e- 4A-	.	.	.	.
.	8ee-L	.	8g-L\	.
4e- 4A-	8ff	4cc/	8a-	.
.	8ee-J)	.	8g-J	.
*	*	*v	*v	*
*	*v	*v	*
=53	=53	=53
4D-	4dd-/ 4f/	.
4d- 4A- 4F	(<8ccL 8a-	.
.	8b-J 8g-)	.
4r	4a- 4f	.
*ped	*	*
=54	=54	=54
*	*^	*
4AA- 4AAA-	4.b-	4.g-	.
4A- 4AA-	.	.	.
.	(>8a-L	8cL	.
4A- 4AA-	8b-	8g-	.
*Xped	*	*	*
.	8a-J)	8cJ	.
=55	=55	=55	=55
*ped	*	*	*
4D- 4DD-	(>4f	4d-	.
!	!	!LO:N:vis=2	!
4A- 4D-	8a-L	8f	.
.	8dd-J	4.a-	.
*Xped	*	*	*
4r	4ff 4dd-)	.	.
!!LO:LB:g=original
=56	=56	=56	=56
*	*	*^	*
4A- 4AA-	(>4.ff	2.cc	4.a-^<\	.
4e- 4A-	.	.	.	.
.	8ee-	.	8g-\	.
4e- 4A-	8ffL	.	8a-L\	.
.	8ee-J)	.	8g-J	.
*	*	*v	*v	*
=57	=57	=57	=57
!!LO:TX:a:B:t=1ᵒ
*>C1	*>C1	*>C1	*>C1
4D-	2dd-	2f	.
4d- 4A- 4F	.	.	.
4r	4a-	4f	.
*	*v	*v	*
=58:|!	=58:|!	=58:|!
!!LO:TX:a:B:t=2ᵒ
*>C2	*>C2	*>C2
4D-	4dd- 4f\	.
4d- 4A- 4F	4r	.
4r	4d-	.
=59||	=59||	=59||
*>D	*>D	*>D
*k[b-e-a-d-g-c-]	*k[b-e-a-d-g-c-]	*
*	*^	*
(>8GG-L	2.b-	4re	<
8D-	.	.	.
8E-	.	4d- 4B-	.
8F	.	.	.
8G-	.	4d- 4B-	.
8A-J)	.	.	[
=60	=60	=60	=60
2B-	2g-^>	4rA	.
.	.	4d-	<
4A-	4f	4d-	.
=61	=61	=61	=61
2c-	2a-^>	4rA	.
.	.	4d-	.
4B-	4gn	4d-	.
=62	=62	=62	=62
2e-	2.b-	4re	.
.	.	4gn 4e-	.
4d-	.	4g 4e-	.
!!LO:LB:g=original
=63	=63	=63	=63
4c-	(>2ee-	4a-	.
(>8d-L	.	4a- 4e-	.
8c-J)	.	.	.
4B-	4dd-	4gn 4e-	.
=64	=64	=64	=64
4A-	2cc-	4a- 4e-	.
8B-L	.	4a- 4e-	.
8A-J	.	.	.
4G-	4ccn	4an 4e-	.
=65	=65	=65	=65
4F	2dd-	4a-X 4d-	.
8G-L	.	4a- 4d-	.
8FJ	.	.	.
4E-	4ccn 4a-)	4g-	.
=66	=66	=66	=66
2.D-T>	(>4ee- 4cc-X	4g-	>
.	4dd- 4b-	8fL	.
.	.	8e-J	]
.	4cc- 4a-)	4f	.
16qqCnL/	.	.	.
16qqD-J	.	.	.
=67	=67	=67	=67
(>8GG-L	2.b- 2.g-	4rc	.
8D-	.	.	.
8E-	.	4d- 4B-	.
8F	.	.	.
8G-	.	4d- 4B-	.
8A-J)	.	.	.
=68	=68	=68	=68
2B-	(>2g-	4rA	.
.	.	4d-	.
4A-	4f)	4d-	.
!!LO:LB:g=original
=69	=69	=69	=69
2c-	(>2a-	4rc	.
.	.	4d-	<
4B-	4gn)	4d-	.
=70	=70	=70	=70
2e-	2.b-	4re	.
.	.	4gn 4e-	.
4d-	.	4g 4e-	.
=71	=71	=71	=71
(>4c-	(>2ee-	4a- 4e-	.
8d-L	.	4a- 4e-	.
8c-J	.	.	.
4B-)	4dd-	4gn 4e-	.
=72	=72	=72	=72
(>4A-	2cc-	4a- 4e-	.
8B-L	.	4a- 4e-	.
8A-J	.	.	.
4G-)	4ccn)	4an 4e-	.
=73	=73	=73	=73
(<8FL	4dd-	4a-X 4d-	.
8E-	.	.	.
!LO:TX:B:t=Fine\ o\ da\ Capo\ il\ Valzo.:dur=5q:ext=s:problem:text with extention lines	!	!	!
8D-	4r	4ryy	.
8C-	.	.	.
8BB-	4dd-	4cc- 4f	.
8AA-J	.	.	.
*	*v	*v	*
=74	=74	=74
4GG-)	4gg- 4b- 4g-	.
4r	4r	.
4r	4r	.
==	==	==
*-	*-	*-
!!title: @{OTL}; @{OPS} @{ONM} publisher: @{PPR}
!!!RDF**kern: > = above
!!!RDF**kern: < = below
!!!RDF**kern: N = linked
!!!RDF**dynam: < = "cresc." fontstyle="bold-italic"
!!!RDF**dynam: > = "dim." fontstyle="bold-italic"
!!!ENC: Emilia Ziętek
!!!END: 2020-03-01
!!!EED: Antoni Szymański
!!!EST: revision finished 2020-03-14
